icons/solid/inbox.svg

<svg width="24" height="24" viewBox="0 0 24 24" fill="none" xmlns="http://www.w3.org/2000/svg">
<path fill-rule="evenodd" clip-rule="evenodd" d="M6 21C4.34315 21 3 19.6569 3 18V15H8C8 16.1046 8.89543 17 10 17L14 17C15.1046 17 16 16.1046 16 15H21V18C21 19.6569 19.6569 21 18 21H6ZM21 13H16C14.8954 13 14 13.8954 14 15L10 15C10 13.8954 9.10457 13 8 13H3V6C3 4.34315 4.34315 3 6 3H18C19.6569 3 21 4.34314 21 6V13Z" fill="currentColor"/>
</svg>

<svg width="24" height="24" fill="none" xmlns="http://www.w3.org/2000/svg"><path fill-rule="evenodd" clip-rule="evenodd" d="M6 21a3 3 0 01-3-3v-3h5a2 2 0 002 2h4a2 2 0 002-2h5v3a3 3 0 01-3 3H6zm15-8h-5a2 2 0 00-2 2h-4a2 2 0 00-2-2H3V6a3 3 0 013-3h12a3 3 0 013 3v7z" fill="currentColor"/></svg>
